X: 3
T:Bag of Spuds, The
M:C|
L:1/8
Q:200
S:THSP
R:reel
Z:
K:Ador
"Am"A2eA cAeA|ABcd edBA|"G"G2dG BGdG|GB~B2 GBdB|
"Am"A2eA cAeA|ABcd edBA|"G"GABd ~g3e|dBGA "Am"BAA2:|
|:"Am"a2ea a2ea|agbg agef|"G"gedc BGBd|gfga bgeg|
"Am"a2ea ageg|agbg age2|"G"d^cde gage|1 dBGA  "Am"BAA2:|2dBGA "Am"BAAG|]
